X: 108204
Q:"Reel."
M: C
L: 1/8
K: G
|:\
g2dB G2BG | E2AG FDD2 |\
g2dB G2BG | EAFD G2(Bd) :|\
efge fgaf | gfge fddf |
efge fgaf | gfed g2(Bd) |\
efge dBgB | caBg AFED |\



